X: 33787
T: Rawlins Cross
R: reel
M: 4/4
K: Gmajor
EF|:G2GF GABc|dgge dBG2|g2ge fgaf|dcde fdcA|
G2GF GABc|dgge dBG2|g2ge dBGB|1 ADFD G2EF:|2 AAFD G2ef||
|:g2gb afdf|eAce dBGB|cecA BdBG|EAAG FAdf|
g2gb afdf|eAce dBG2|dgge dBGB|1 AAFD G2ef:|2 ADFD G2EF||

